X: 26430
T: Merry Sisters, The
R: reel
M: 4/4
K: Edorian
B>E (3FED BdcA|B>E (3FED dAFA|B>E (3FED BdcA|1 d>D (3.D.D.D ADFA:|2 dfec dAFA||
Beec d2 cA|Beec dAFA|Beec d2 cA|BABc dAFA|
Beec e2 cA|Beec defg|(3agf (3gfe fdec|BABc dAFA||
BdcA BFAF|B>E (3.E.E.E BEFA|BdcA BFAF|d>D (3.D.D.D ADFA|
BdcA BFAF|B>E (3.E.E.E BEFA|DFAc d2 eg|fdec dAFA||

